X:1
T: Charming Maid
N:
C:
S:
A:
O:
R:
M:4/4
K:D
I:speed 200
%W: A1
% voice 1 (1 lines, 36 notes)
K:D
M:4/4
L:1/16
D2 E2 F2 G2 A2 G2 F2 E2 |D4 d4 c4 d4 |e8 f8 |g2 f2 e2 d2 c2 e2 f2 g2 |a4 A4 g8 |f4 g4 e4 d4 |c4 d2 c2 B4 c2 B2 |A16 |
%W: A2
% voice 1 (1 lines, 36 notes)
D2 E2 F2 G2 A2 G2 F2 E2 |D4 d4 c4 d4 |e8 f8 |g2 f2 e2 d2 c2 e2 f2 g2 |a4 A4 g8 |f4 g4 e4 d4 |c4 d2 c2 B4 c2 B2 |A16 |
%W: B1
% voice 1 (1 lines, 52 notes)
A2 B2 c2 d2 e2 d2 c2 B2 |A4 A4 e4 A4 |d2 e2 f2 g2 a2 g2 f2 e2 |d4 f4 a4 d4 |g2 f2 g2 a2 b2 c'2 b2 a2 |g2 a2 g2 f2 e2 f2 g2 a2 |b2 a2 g2 f2 g2 f2 e2 d2 |c8 A4 f2 g2 |
%W: B2
% voice 1 (1 lines, 41 notes)
a2 f2 d2 f2 a2 f2 d2 f2 |e4 c4 A4 f2 g2 |a2 f2 d2 f2 a2 f2 d2 f2 |e4 c4 A4 c4 |d4 e4 f4 g4 |a8 d'2 c'2 b2 a2 |b2 a2 g2 f2 e6 d2 |d16 ||
